public/dbkeep-light.svg

<svg xmlns="http://www.w3.org/2000/svg" xml:space="preserve" style="fill-rule:evenodd;clip-rule:evenodd;stroke-linejoin:round;stroke-miterlimit:2" viewBox="0 0 472 469"><path d="M52.53 0C81.4 0 104.8 10.96 104.8 24.46c0 13.51-23.41 24.46-52.27 24.46S.26 37.96.26 24.46 23.67 0 52.53 0ZM.26 81.83v18.78c9.3 33.03 101.18 26.65 104.55-1.69V80.16c-4.59 31.11-97.2 33.35-104.55 1.67ZM0 32.94v18.34c9.3 32.26 101.69 27.9 105.07.23V33.18C100.47 63.57 7.35 63.88 0 32.94Zm0 23.7v18.78c9.3 33.03 101.69 28.57 105.07.23V56.89C100.47 88 7.35 88.32 0 56.64Z" style="fill:#fff;stroke:#fff;stroke-width:.62px" transform="translate(150.864 .5)scale(1.61975)"/><circle cx="62" cy="80" r="2" style="fill:#1d293d" transform="translate(-70.135 -215.528)scale(3.81855)"/><circle cx="62" cy="80" r="2" style="fill:#1d293d" transform="translate(-70.135 -178.226)scale(3.81855)"/><circle cx="62" cy="80" r="2" style="fill:#1d293d" transform="translate(-70.135 -136.988)scale(3.81855)"/><path d="M80 55.332v29.336a.33.33 0 0 1-.332.332H56.332a.33.33 0 0 1-.332-.332V55.332c0-.183.149-.332.332-.332h23.336c.183 0 .332.149.332.332" style="fill:#ffb900" transform="translate(-337.545 -43.829)scale(6.02758)"/><path d="M77 58.086v2.828c0 .048-.074.086-.166.086H59.166c-.092 0-.166-.038-.166-.086v-2.828c0-.048.074-.086.166-.086h17.668c.092 0 .166.038.166.086" style="fill:#1d293d" transform="matrix(6.02758 0 0 11.65081 -337.545 -264.172)"/><path d="M77 58.086v2.828c0 .048-.074.086-.166.086H59.166c-.092 0-.166-.038-.166-.086v-2.828c0-.048.074-.086.166-.086h17.668c.092 0 .166.038.166.086" style="fill:#1d293d" transform="matrix(6.02758 0 0 11.65081 -337.545 -315.161)"/><path d="M77 58.086v2.828c0 .048-.074.086-.166.086H59.166c-.092 0-.166-.038-.166-.086v-2.828c0-.048.074-.086.166-.086h17.668c.092 0 .166.038.166.086" style="fill:#1d293d" transform="matrix(6.02758 0 0 11.65081 -337.545 -366.07)"/><path d="M80 55.332v29.336a.33.33 0 0 1-.332.332H56.332a.33.33 0 0 1-.332-.332V55.332c0-.183.149-.332.332-.332h23.336c.183 0 .332.149.332.332" style="fill:#ffb900" transform="translate(-10.451 -43.829)scale(6.02758)"/><path d="M77 58.086v2.828c0 .048-.074.086-.166.086H59.166c-.092 0-.166-.038-.166-.086v-2.828c0-.048.074-.086.166-.086h17.668c.092 0 .166.038.166.086" style="fill:#1d293d" transform="matrix(6.02758 0 0 11.65081 -10.451 -264.172)"/><path d="M77 58.086v2.828c0 .048-.074.086-.166.086H59.166c-.092 0-.166-.038-.166-.086v-2.828c0-.048.074-.086.166-.086h17.668c.092 0 .166.038.166.086" style="fill:#1d293d" transform="matrix(6.02758 0 0 11.65081 -10.451 -315.161)"/><path d="M77 58.086v2.828c0 .048-.074.086-.166.086H59.166c-.092 0-.166-.038-.166-.086v-2.828c0-.048.074-.086.166-.086h17.668c.092 0 .166.038.166.086" style="fill:#1d293d" transform="matrix(6.02758 0 0 11.65081 -10.451 -366.07)"/><path d="M44.631 114.918H58.54v126.073H44.631z" style="fill:#fff;stroke:#fff;stroke-width:.98px;stroke-linecap:round;stroke-miterlimit:1.5" transform="rotate(45.005 13.684 260.252)scale(1 1.04322)"/><path d="M44.631 114.918H58.54v126.073H44.631z" style="fill:#fff;stroke:#fff;stroke-width:.98px;stroke-linecap:round;stroke-miterlimit:1.5" transform="rotate(-44.97 273.849 -184.915)scale(1 1.04322)"/></svg>

<?xml version="1.0" encoding="UTF-8" standalone="no"?>
<!DOCTYPE svg PUBLIC "-//W3C//DTD SVG 1.1//EN" "http://www.w3.org/Graphics/SVG/1.1/DTD/svg11.dtd">
<svg width="100%" height="100%" viewBox="0 0 512 512" version="1.1" xmlns="http://www.w3.org/2000/svg" xmlns:xlink="http://www.w3.org/1999/xlink" xml:space="preserve" xmlns:serif="http://www.serif.com/" style="fill-rule:evenodd;clip-rule:evenodd;stroke-linejoin:round;stroke-miterlimit:2;">
    <g transform="matrix(0.976562,0,0,0.976562,6,6)">
        <circle cx="256" cy="256" r="256" style="fill:white;"/>
    </g>
    <g>
        <g transform="matrix(1.27254,0,0,1.27254,189.147,54.882)">
            <path d="M52.53,0C81.4,0 104.8,10.96 104.8,24.46C104.8,37.97 81.39,48.92 52.53,48.92C23.67,48.92 0.26,37.96 0.26,24.46C0.26,10.96 23.67,0 52.53,0ZM0.26,81.83L0.26,100.61C9.56,133.64 101.44,127.26 104.81,98.92L104.81,80.16C100.22,111.27 7.61,113.51 0.26,81.83ZM0,32.94L0,51.28C9.3,83.54 101.69,79.18 105.07,51.51L105.07,33.18C100.47,63.57 7.35,63.88 0,32.94ZM0,56.64L0,75.42C9.3,108.45 101.69,103.99 105.07,75.65L105.07,56.89C100.47,88 7.35,88.32 0,56.64Z" style="fill:rgb(29,41,61);"/>
        </g>
        <g>
            <g transform="matrix(3,0,0,3,15.5215,-114.838)">
                <circle cx="62" cy="80" r="2" style="fill:rgb(255,185,0);"/>
            </g>
            <g transform="matrix(3,0,0,3,15.5215,-85.5326)">
                <circle cx="62" cy="80" r="2" style="fill:rgb(255,185,0);"/>
            </g>
            <g transform="matrix(3,0,0,3,15.5215,-53.134)">
                <circle cx="62" cy="80" r="2" style="fill:rgb(255,185,0);"/>
            </g>
        </g>
    </g>
    <g transform="matrix(1,0,0,1,227.296,29.0463)">
        <g transform="matrix(4.39232,0,0,4.39232,-153.086,5.37586)">
            <path d="M80,55.455L80,84.545C80,84.796 79.796,85 79.545,85L56.455,85C56.204,85 56,84.796 56,84.545L56,55.455C56,55.204 56.204,55 56.455,55L79.545,55C79.796,55 80,55.204 80,55.455Z" style="fill:rgb(255,185,0);"/>
        </g>
        <g transform="matrix(4.39232,0,0,4.39232,-153.086,29.2444)">
            <path d="M77,58.228L77,60.772C77,60.898 76.898,61 76.772,61L59.228,61C59.102,61 59,60.898 59,60.772L59,58.228C59,58.102 59.102,58 59.228,58L76.772,58C76.898,58 77,58.102 77,58.228Z" style="fill:rgb(29,41,61);"/>
        </g>
        <g transform="matrix(4.39232,0,0,4.39232,-153.086,29.2444)">
            <path d="M77,63.228L77,65.772C77,65.898 76.898,66 76.772,66L59.228,66C59.102,66 59,65.898 59,65.772L59,63.228C59,63.102 59.102,63 59.228,63L76.772,63C76.898,63 77,63.102 77,63.228Z" style="fill:rgb(29,41,61);"/>
        </g>
        <g transform="matrix(4.39232,0,0,4.39232,-153.086,29.2444)">
            <path d="M77,68.228L77,70.772C77,70.898 76.898,71 76.772,71L59.228,71C59.102,71 59,70.898 59,70.772L59,68.228C59,68.102 59.102,68 59.228,68L76.772,68C76.898,68 77,68.102 77,68.228Z" style="fill:rgb(29,41,61);"/>
        </g>
        <g transform="matrix(4.39232,0,0,4.39232,-153.086,51.1778)">
            <path d="M77,68.228L77,70.772C77,70.898 76.898,71 76.772,71L59.228,71C59.102,71 59,70.898 59,70.772L59,68.228C59,68.102 59.102,68 59.228,68L76.772,68C76.898,68 77,68.102 77,68.228Z" style="fill:rgb(29,41,61);"/>
        </g>
        <g id="Séparation-header" serif:id="Séparation header" transform="matrix(5.88998,0,0,1,-254.962,198.085)">
            <rect x="59" y="68" width="18" height="3" style="fill:rgb(29,41,61);"/>
        </g>
    </g>
    <g transform="matrix(1,0,0,1,-6.41001,28.7571)">
        <g transform="matrix(4.39232,0,0,4.39232,-153.086,5.37586)">
            <path d="M80,55.455L80,84.545C80,84.796 79.796,85 79.545,85L56.455,85C56.204,85 56,84.796 56,84.545L56,55.455C56,55.204 56.204,55 56.455,55L79.545,55C79.796,55 80,55.204 80,55.455Z" style="fill:rgb(255,185,0);"/>
        </g>
        <g transform="matrix(4.39232,0,0,4.39232,-153.086,29.2444)">
            <path d="M77,58.228L77,60.772C77,60.898 76.898,61 76.772,61L59.228,61C59.102,61 59,60.898 59,60.772L59,58.228C59,58.102 59.102,58 59.228,58L76.772,58C76.898,58 77,58.102 77,58.228Z" style="fill:rgb(29,41,61);"/>
        </g>
        <g transform="matrix(4.39232,0,0,4.39232,-153.086,29.2444)">
            <path d="M77,63.228L77,65.772C77,65.898 76.898,66 76.772,66L59.228,66C59.102,66 59,65.898 59,65.772L59,63.228C59,63.102 59.102,63 59.228,63L76.772,63C76.898,63 77,63.102 77,63.228Z" style="fill:rgb(29,41,61);"/>
        </g>
        <g transform="matrix(4.39232,0,0,4.39232,-153.086,29.2444)">
            <path d="M77,68.228L77,70.772C77,70.898 76.898,71 76.772,71L59.228,71C59.102,71 59,70.898 59,70.772L59,68.228C59,68.102 59.102,68 59.228,68L76.772,68C76.898,68 77,68.102 77,68.228Z" style="fill:rgb(29,41,61);"/>
        </g>
        <g transform="matrix(4.39232,0,0,4.39232,-153.086,51.1778)">
            <path d="M77,68.228L77,70.772C77,70.898 76.898,71 76.772,71L59.228,71C59.102,71 59,70.898 59,70.772L59,68.228C59,68.102 59.102,68 59.228,68L76.772,68C76.898,68 77,68.102 77,68.228Z" style="fill:rgb(29,41,61);"/>
        </g>
        <g id="Séparation-header1" serif:id="Séparation header" transform="matrix(5.88998,0,0,1,-254.962,198.085)">
            <rect x="59" y="68" width="18" height="3" style="fill:rgb(29,41,61);"/>
        </g>
    </g>
    <g>
        <g transform="matrix(0.59717,0,0,0.589878,66.4887,107.274)">
            <rect x="121.73" y="222.554" width="195.619" height="11.867" style="fill:rgb(29,41,61);"/>
        </g>
        <g transform="matrix(0.626016,0,0,0.589878,174.153,107.274)">
            <rect x="121.73" y="222.554" width="195.619" height="11.867" style="fill:rgb(29,41,61);"/>
        </g>
        <g transform="matrix(0.180839,0,0,0.589878,333.117,132.782)">
            <rect x="121.73" y="222.554" width="195.619" height="11.867" style="fill:rgb(29,41,61);"/>
        </g>
        <g transform="matrix(0.180839,0,0,0.589878,99.4806,132.782)">
            <rect x="121.73" y="222.554" width="195.619" height="11.867" style="fill:rgb(29,41,61);"/>
        </g>
        <g transform="matrix(0.919255,0,0,0.773246,160.588,59.7784)">
            <rect x="99.651" y="202.865" width="7.615" height="31.556" style="fill:rgb(29,41,61);"/>
        </g>
        <g transform="matrix(0.919255,0,0,0.919255,277.441,52.0693)">
            <rect x="99.651" y="202.865" width="7.615" height="31.556" style="fill:rgb(29,41,61);"/>
        </g>
        <g transform="matrix(0.919255,0,0,0.919255,44.0772,52.0693)">
            <rect x="99.651" y="202.865" width="7.615" height="31.556" style="fill:rgb(29,41,61);"/>
        </g>
    </g>
</svg>
